!!!COM: Music21
!!!OTL: march_Old-Rustic-Bridge
!!!OMV: march_Old-Rustic-Bridge
**kern
*clefG2
*k[f#c#]
*D:
*M4/4
=1
8.aL
16ddJk
=
4ff#
8.ff#L
16ggJk
4ff#
8ddL
8cc#J
=
4b
8g
8dd
4a
8a
8ryy
=
4b
8cc#L
8ddJ
4dd
8cc#L
8ddJ
=
4ee
8.eeL
16ff#Jk
4ee
8.aL
16ddJk
=
4ff#
8.ff#L
16ggJk
4ff#
8ddL
8cc#J
=
4b
8gL
8ddJ
4.a
8a
=
4b
8eeL
8ggJ
8ff#L
8eeJ
8cc#L
8aJ
=
4dd
8.ddL
16eeJk
4dd
4dd
=
4cc#
8.cc#L
16ddJk
4ee
8ff#L
8eeJ
=
4ee
8bL
8cc#J
4dd
8.cc#L
16ddJk
=
4ee
8.aaL
16cc#Jk
8eeL
8ddJ
8cc#L
8bJ
=
4a
4b
4cc#
8.aL
16ddJk
=
4ff#
8ff#L
8ggJ
4ff#
8ddL
8cc#J
=
4b
8gL
8ddJ
4.a
8a
=
4b
8eeL
8ggJ
8ff#L
8eeJ
8cc#L
8aJ
=
4dd
8ddL
8eeJ
4.dd
8ff#
=
4gg
8.ggL
16ff#Jk
4ee
8bL
8cc#J
=
8dd
4.ff#
4.ff#
8ff#
=
4ee
8.aaL
16cc#Jk
8eeL
8ddJ
8cc#L
8bJ
=
4a
4b
4cc#
8.aL
16ddJk
=
4ff#
8.ff#L
16ggJk
4ff#
8ddL
8cc#J
=
4b
8gL
8ddJ
4.a
8a
=
4b
8eeL
8ggJ
8ff#L
8eeJ
8cc#L
8aJ
=
4dd
8.ddL
16eeJk
4dd
4ryy
=||
*-
